svgs/aok.svg

<svg xmlns="http://www.w3.org/2000/svg" viewBox="0 0 192 192"><path d="m113.626 106.606-17.476 10.09m-.629-36.641v56.937m36.296.852H59.196m35.655-21.619-18.972-10.954M96 16.5a79.529 79.529 0 0 0-56.215 23.285A79.529 79.529 0 0 0 16.5 96a79.529 79.529 0 0 0 23.285 56.215A79.529 79.529 0 0 0 96 175.5a79.529 79.529 0 0 0 56.215-23.285A79.529 79.529 0 0 0 175.5 96a79.529 79.529 0 0 0-23.285-56.215A79.529 79.529 0 0 0 96 16.5Z" fill="none" stroke="#000" stroke-width="12" stroke-linecap="round" stroke-linejoin="round"/><path d="m84.26 52.674 11.312-11.312L106.23 52.02m.405.442.037.04c6.163 6.143 6.198 16.099.055 22.262-.012.012-.024.025-.055.018-6.152 6.153-16.128 6.153-22.28 0-6.026-6.025-6.168-15.75-.321-21.95m-37.534 49.116-4.141-15.453 14.559-3.901m.585-.128.051-.014c8.404-2.252 17.043 2.736 19.295 11.14 2.252 8.405-2.736 17.043-11.14 19.295-8.231 2.206-16.725-2.533-19.17-10.697m87.353-19.632 15.299 4.677-4.407 14.414m-.2.565-.018.049c-2.544 8.321-11.352 13.004-19.672 10.46-8.321-2.544-13.004-11.351-10.46-19.672 2.491-8.15 11.011-12.841 19.23-10.589" fill="none" stroke="#000" stroke-width="12" stroke-linecap="round" stroke-linejoin="round"/></svg>

<svg
    xmlns="http://www.w3.org/2000/svg"
    viewBox="0 0 192 192"
    id="vector">
    <path
        id="path"
        d="M 113.626 106.606 L 96.15 116.696 M 95.521 80.055 L 95.521 136.992 M 131.817 137.844 L 59.196 137.844 M 94.851 116.225 L 75.879 105.271 M 96 16.5 C 74.923 16.5 54.688 24.882 39.785 39.785 C 24.882 54.688 16.5 74.923 16.5 96 C 16.5 117.077 24.882 137.312 39.785 152.215 C 54.688 167.118 74.923 175.5 96 175.5 C 117.077 175.5 137.312 167.118 152.215 152.215 C 167.118 137.312 175.5 117.077 175.5 96 C 175.5 74.923 167.118 54.688 152.215 39.785 C 137.312 24.882 117.077 16.5 96 16.5 Z"
        fill="none"
        stroke="#000000"
        stroke-width="12"
        stroke-linecap="round"
        stroke-linejoin="round"/>
    <path
        id="path_1"
        d="M 84.26 52.674 L 95.572 41.362 L 106.23 52.02 M 106.635 52.462 C 106.647 52.475 106.66 52.488 106.672 52.502 C 112.835 58.645 112.87 68.601 106.727 74.764 C 106.715 74.776 106.703 74.789 106.672 74.782 C 100.52 80.935 90.544 80.935 84.392 74.782 C 78.366 68.757 78.224 59.032 84.071 52.832 M 46.537 101.948 L 42.396 86.495 L 56.955 82.594 M 57.54 82.466 C 57.557 82.461 57.574 82.457 57.591 82.452 C 65.995 80.2 74.634 85.188 76.886 93.592 C 79.138 101.997 74.15 110.635 65.746 112.887 C 57.515 115.093 49.021 110.354 46.576 102.19 M 133.929 82.558 L 149.228 87.235 L 144.821 101.649 M 144.621 102.214 C 144.615 102.23 144.609 102.246 144.603 102.263 C 142.059 110.584 133.251 115.267 124.931 112.723 C 116.61 110.179 111.927 101.372 114.471 93.051 C 116.962 84.901 125.482 80.21 133.701 82.462"
        fill="none"
        stroke="#000000"
        stroke-width="12"
        stroke-linecap="round"
        stroke-linejoin="round"/>
</svg>
